X:2109
L:1/4
M:2/2
K:D
 d2 e2 | A/B/c/d/ B A | d e f g/f/ | e2 d2 :: d e f e/f/ | g g g2 | g e/f/ g/f/e/d/ | e e e2 | 
 d e f g | a d c A | a d c A | d e f g/f/ | e2 d2 :|

